img/advantages/advantages-Icon1.svg

<svg width="100" height="100" viewBox="0 0 100 100" fill="none" xmlns="http://www.w3.org/2000/svg">
<circle cx="50" cy="50" r="50" fill="#FCD5C8"/>
<path d="M66.6667 50C66.6667 47.8113 66.2356 45.644 65.398 43.6219C64.5604 41.5998 63.3328 39.7625 61.7851 38.2149C60.2375 36.6672 58.4002 35.4396 56.3781 34.602C54.356 33.7644 52.1887 33.3333 50 33.3333C45.5797 33.3333 41.3405 35.0893 38.2149 38.2149C35.0893 41.3405 33.3333 45.5797 33.3333 50C33.3333 54.4203 35.0893 58.6595 38.2149 61.7851C41.3405 64.9107 45.5797 66.6666 50 66.6666C54.4203 66.6666 58.6595 64.9107 61.7851 61.7851C64.9107 58.6595 66.6667 54.4203 66.6667 50ZM63.2167 48.3333H58.3333C58.0585 44.4136 56.7154 40.6439 54.45 37.4333C56.7774 38.2599 58.8295 39.7168 60.3775 41.6414C61.9254 43.566 62.9083 45.8828 63.2167 48.3333ZM45.1333 51.6666H55C54.5735 55.7843 52.8184 59.6513 50 62.6833C47.1835 59.6639 45.4687 55.7821 45.1333 51.6666ZM45.1333 48.3333C45.5215 44.2364 47.2293 40.3762 50 37.3333C52.8412 40.3435 54.6002 44.2134 55 48.3333H45.1333ZM45.7333 37.3833C43.4559 40.6117 42.0913 44.3945 41.7833 48.3333H36.7833C37.0982 45.8525 38.1043 43.5102 39.6869 41.5739C41.2695 39.6377 43.3648 38.1855 45.7333 37.3833ZM36.7833 51.6666H41.7833C42.0578 55.6021 43.4131 59.3854 45.7 62.6C43.34 61.7938 41.2533 60.342 39.6771 58.4093C38.1009 56.4766 37.0984 54.1406 36.7833 51.6666ZM54.3667 62.5833C56.6473 59.3678 58.0178 55.5962 58.3333 51.6666H63.25C62.9348 54.1337 61.9359 56.4635 60.3661 58.3926C58.7963 60.3217 56.7182 61.7733 54.3667 62.5833Z" fill="#F25822"/>
</svg>

<svg width="100" height="100" fill="none" xmlns="http://www.w3.org/2000/svg"><circle cx="50" cy="50" r="50" fill="#FCD5C8"/><path d="M66.667 50a16.667 16.667 0 10-33.333 0 16.667 16.667 0 0033.333 0zm-3.45-1.667h-4.884a21.517 21.517 0 00-3.883-10.9 13.334 13.334 0 018.767 10.9zm-18.084 3.334H55a19.066 19.066 0 01-5 11.016 18.334 18.334 0 01-4.867-11.016zm0-3.334a19 19 0 014.867-11 18.65 18.65 0 015 11h-9.867zm.6-10.95a21.967 21.967 0 00-3.95 10.95h-5a13.334 13.334 0 018.95-10.95zm-8.95 14.284h5A21.433 21.433 0 0045.7 62.6a13.334 13.334 0 01-8.917-10.933zm17.584 10.916a21.9 21.9 0 003.966-10.916h4.917a13.333 13.333 0 01-8.883 10.916z" fill="#F25822"/></svg>
